X:172
T:Synergy
C: Corey Christiansen
N:Copyright Corey Christiansen Arr for Mandolin & TablEdited by Spencer Sorenson
L:1/8
Q:1/4=175
M:4/4
K:Bb
z8 |: g4 d2 cB | z3A Bd _ga | g2 g2 d2 cB | z8 | c'4 g2 fe | z3A Bd _ga | g2 g2 d2 cB | 
zF _G_A Bc de | d2 g2 d2 g2 | d3d2d2e | d2 cB cB G_G |: z8 | G_G =GA BA B_d | 
d_d =d_g =g_g =ga | b4 a2 fg | z4 zg _g=g | d'4 c'2 bc' | z3d2d _d=d | c'4 bc' ag | 
z8 | EF2G2B2G | A_A =AB ce c_d | df a_a g2 fg | c'a fc Be gb | a2 (3fdB AG2G | 
zB AG c=B _Be | dB _GA =e=G Bd | dc =eg dB GD | FD (3EGB d/e/c z2 | cd/c/ Bc4z | 
_d=d gd cB GB | [g_d]c BG4z | AB ce de gb | d'e' d'c' f'e'2d' | zc' b=b ag _ga | 
b_g dg _ae ce | d2 cd4c | A2 GA4G | =EE DE2G2E | FG Ac =Bd fd | eG _G=G dc3 | 
d2 fd4d | ed _d=d cB AB | AG _G=G z4 | AB AG cB AG | _GA cd ee dc | BA (3Bdf ag3 | 
de cd4z | ac' b_g a=g dB | A_G =GA Bc df | =e_e c_d =df ac' | z=b/_b/ ac' ba f_g | 
ge gb d'c'3 | d'2 f'_d' zf' c'2 | b2 d'a zc' g2 | zd' c'b ag fg | gf ga ba bc' | 
d'c' b_g fe c_d | d2 cd2c =B_B | A_G =GA Bc d_g :| z3G4z | 


